assets/awselasticcontainerservicetask/original.svg

<svg height="48" viewBox="0 0 48 48" width="48" xmlns="http://www.w3.org/2000/svg"><path d="m20.25 36.375h15.75v-2h-15.75zm0-12.25h15.75v-2h-15.75zm0-12.25h15.75v-2h-15.75zm-6.875 25.125h3.25v-3.25h-3.25zm-1 2h5.25a1 1 0 0 0 1-1v-5.25a1 1 0 0 0 -1-1h-5.25a1 1 0 0 0 -1 1v5.25a1 1 0 0 0 1 1m1-14.25h3.25v-3.25h-3.25zm-1 2h5.25a1 1 0 0 0 1-1v-5.25a1 1 0 0 0 -1-1h-5.25a1 1 0 0 0 -1 1v5.25a1 1 0 0 0 1 1m1-14.25h3.25v-3.25h-3.25zm-1 2h5.25a1 1 0 0 0 1-1v-5.25a1 1 0 0 0 -1-1h-5.25a1 1 0 0 0 -1 1v5.25a1 1 0 0 0 1 1m-3.375 29.5h29.5v-40h-29.5zm30.5-42h-31.5a1 1 0 0 0 -1 1v42a1 1 0 0 0 1 1h31.5a1 1 0 0 0 1-1v-42a1 1 0 0 0 -1-1" fill="#ed7100" fill-rule="evenodd"/></svg>

<svg xmlns="http://www.w3.org/2000/svg" width="48" height="48" viewBox="0 0 48 48"><title>Icon-Resource/Containers/Res_Amazon-Elastic-Container-Service_Task_48</title><g id="Icon-Resource/Containers/Res_Amazon-Elastic-Container-Service_Task_48" fill="none" fill-rule="evenodd" stroke="none" stroke-width="1"><path id="Amazon-Elastic-Container-Service_Task_Resource-Icon_light-bg" fill="#ed7100" d="M20.25 36.375H36v-2H20.25zm0-12.25H36v-2H20.25zm0-12.25H36v-2H20.25zM13.375 37h3.25v-3.25h-3.25zm-1 2h5.25a1 1 0 0 0 1-1v-5.25a1 1 0 0 0-1-1h-5.25a1 1 0 0 0-1 1V38a1 1 0 0 0 1 1m1-14.25h3.25V21.5h-3.25zm-1 2h5.25a1 1 0 0 0 1-1V20.5a1 1 0 0 0-1-1h-5.25a1 1 0 0 0-1 1v5.25a1 1 0 0 0 1 1m1-14.25h3.25V9.25h-3.25zm-1 2h5.25a1 1 0 0 0 1-1V8.25a1 1 0 0 0-1-1h-5.25a1 1 0 0 0-1 1v5.25a1 1 0 0 0 1 1M9 44h29.5V4H9zM39.5 2H8a1 1 0 0 0-1 1v42a1 1 0 0 0 1 1h31.5a1 1 0 0 0 1-1V3a1 1 0 0 0-1-1"/></g></svg>
